X: 8728
T: Crúiscín Lán
R: reel
M: 4/4
K: Gminor
DD|DGGA B2AB|cBAG G^F=EF|G2GA BABc|d4z2d2|
dBBd f2ed|cBAB c2Bc|dcBA BAG^F|GABc d2Hgd|dedc B2A2|
G2z2BcBd|fdf2 cAFA|cAc2GABc|dcBA GABc|d2Hg2dedc|B2A2G2||

